X:1
Q:1/4=100
L:1/8
M:1/4
K:C clef=G2
V:1
%%MIDI program 74
D2|G2|G2|AB|
cA|B2|AB|c2|
B2|AG|A2|G2-|
G2-|G2||D2|G15/8|
G15/8|AB15/16-|cA15/16-|B15/8|
AB15/16-|c15/8|B15/8|AG15/16-|
A15/8|[G]15/8|[G-]2|[G]2|
[B]15/16c31/32|d2-|d2|e2|
d2-|d2|c2|B2|
AB|c2|B2|A2|
G2|A2-|A2||D2|
G^F|GA|B2|A2-|
A2|G2|^F2|D2|
E^F|GG|G2|^F2|
G2-|G2|
L:1/8
M:1/4
K:C clef=G2
V:2
%%MIDI program 1
D2|[B,DG]2|[B,EG]2|[E-A][EB]|
[D-^F-c][D^FA]|[DGB]2|[D-A][DB]|[CGc]2|
[DGB]2|[E-A][EG]|[^F-A-D][^FAC]|[B,-D-G-]2|
[B,-D-G-]2|[B,DG]2||D2|[B,DG]15/8|
[B,EG]15/8|[E-A][E-B-]15/16|[D-^F-c][D-^F-A-]15/16|[DGB]15/8|
[D-A][D-B-]15/16|[CGc]15/8|[DGB]15/8|[E-A][E-G-]15/16|
[^F-A-D][^F-A-C-]15/16|[B,DG]15/8|[B,-D-G-]2|[B,DG]2|
[G-B]15/16[Gc]31/32|[d-G-]2|[dG]2|[eGc]2|
[^F-A-d-]2|[^FAd]2|[DAc]2|[D-G-B]2|
[D-G-A][DGB]|[EGc]2|[D-G-B]2|[DGA]2|
[DG]2|[D-^F-A-]2|[D^FA]2||D2|
[B,-E-G][B,-E-^F]|[B,-E-G][B,EA]|[B,^FB]2|[C-E-A-]2|
[CEA]2|[CEG]2|[A,-D-^F]2|[A,DD]2|
[A,-D-E][A,D^F]|GG|G2|^F2|
[B,-D-G-]2|[B,DG]2|
L:1/8
M:1/4
K:C clef=F4
V:3
%%MIDI program 1
D,2|G,2|E,2|C,2|
D,2|G,2|^F,2|E,2|
D,2|C,2|D,2|[G,,-G,-]2|
[G,,-G,-]2|[G,,G,]2||D,2|G,15/8|
E,15/8|C,15/8|D,15/8|G,15/8|
^F,15/8|E,15/8|D,15/8|C,15/8|
D,15/8|[G,,G,]15/8|[G,,-G,-]2|[G,,G,]2|
[G,,]15/16A,,31/32|B,,2-|B,,2|C,2|
D,2-|D,2|E,^F,|G,2-|
G,2|C,2|G,,2-|G,,2|
B,,2|D,2-|D,2||D,2|
E,2-|E,2|D,2|C,2-|
C,2|C,2|D,2-|D,2|
C,2|B,,2|A,,2|D,2|
[G,,-G,-]2|[G,,G,]2|


